X:1
T:Title
%%score 1 { ( 2 5 6 ) | ( 3 4 7 ) }
L:1/8
M:4/4
K:Ab
V:1 treble nm="Akkordion"
V:2 treble nm="Grand Piano"
V:5 treble 
V:6 treble 
V:3 bass 
V:4 bass 
V:7 bass 
V:1
 z4 z2 z[Q:1/4=78] E | EE=DE ABcA | GFGA E3 A | AGGB BAAc | cBBF B3 E | EE=DE ABcA | AFAB c3 c | %7
[M:5/4] cFd c2 B FA B2 |[M:9/8] c c2 B A2- A3 |[M:4/4] z8 | z8 | z8 | z8 | z8 | z8 | %15
[M:39/32] z39/4 | %16
[M:7/8] z7[Q:1/4=76][Q:1/4=73][Q:1/4=71][Q:1/4=68][Q:1/4=66][Q:1/4=63][Q:1/4=61] |] %17
V:2
 z4 z2 z E | [CE][CE][_C=D][=CE] [CA][_DB][Ec][CA] | [EG][DF][EG][FA] [CE]3 [CA] | %3
 [DA][DG][DG][DB] [DB][CA][CA][Ec] | z4 B4 | [CE][CE][_C=D][=CE] [CA][_DB][Ec][CA] | z4 [=Ec]4 | %7
[M:5/4] z2 z2 z B z A z2 |[M:9/8] [Ec] [Ec]2 [DB] [CA]2- [CA]3 |[M:4/4] [CE][Ec][=D_c][E=c] dc=AF | %10
 z4 [DB]4 | GA[GB][_Gc] [=Gd][GB][DG][DF] | [DF][CE][EA][EB] [Ec]4 | %13
 [CE][Ec][=D_c][E=c] [_Ge][Gc][EA][EG] | z4 [=E=c]4[K:bass][K:treble] | %15
[M:39/32] z/4 z/4 z/4 z/4 z/4 z/4 z/4 z/4 z/4 z/4 z/4 z/4 z/4 z/4 z/ c3/4 z/4 z/4 z/4 z/4 z/4 z/4 z/4 z/4 z/4 z/4 z/4 z/4 z/4 z/4 z/4 z/4 z/4 z/4 z/ | %16
[M:7/8] z c2- c/4 z/4 z/ z z2 |] %17
V:3
 z4 z2 z C | z E,A,E, z E,A,E, | z A,A,A, z E,A,E, | z E,B,E, z E,A,E, | z F,G,A, z B,A,G, | %5
 z E,A,E, z E,A,E, | z A,A,F, z2 z [B,=E] |[M:5/4] [F,=A,E]2 [F,A,E]4[K:treble] .F2 B2 | %8
[M:9/8][K:bass] z E,F, .G,2 E, A,,3 | %9
[M:4/4] [A,,A,][A,,A,][A,,A,][A,,A,] [F,=A,E][F,A,E][F,CE][F,A,E] | [B,,B,][B,,F,][F,E][F,E] B,,4 | %11
 [E,B,E][E,CE][E,D][E,A,] [E,B,][E,D][E,B,][E,G,] | z4 z A,3 | %13
 [A,,A,][A,,A,][A,,A,][A,,A,] [A,,A,][A,,A,][C,A,][C,A,] | z4 .G,2 z2 | %15
[M:39/32] z/4 z/4 z/4 z/4 z/4 z/4 z/4 z/4 z/4 z/4 z/4 z/4 z/4 z/4 z/ [F,=A,E]3/4 z/4 z/ B,/-<B,/ z/4 z/4 z/4 z/4 z/4 z/4 z/4 z/4 z/4 z/4 z/4 z/ | %16
[M:7/8] z [A,E]2- [A,E]/4 z/4 z/ z z2 |] %17
V:4
 x8 | A,,4 A,,4 | D,4 A,,4 | B,,4 A,,4 | B,,4 E,4 | A,,4 A,,4 | D,4 C,4 | %7
[M:5/4] z2 z2 z B,,2[K:treble] =D,3 |[M:9/8][K:bass] E,,3- E,, A,2- A,3 |[M:4/4] x8 | z4 F,2 z2 | %11
 x8 | [A,,A,][A,,A,][C,A,][E,G,] .A,2 E,C, | x8 | [D,A,][D,A,][D,G,][D,F,] C,3 [C,B,] | %15
[M:39/32] [F,=A,E]/-<[F,A,E]/[F,A,E]/-<[F,A,E]/[F,A,E]/4-[F,A,E]/4-[F,A,E]/4-[F,A,E]/4-[F,A,E]/-<[F,A,E]/ z/ B,/-<B,/D,/-<D,/-[D,=D,-B,-]/[D,B,]/4-[D,B,]/4-[D,B,]/-<[D,B,]/ z/4 z/4 z/4 z/ | %16
[M:7/8] z z2 [E,G,D]-[E,G,D]/4 z/4 z/ z2 |] %17
V:5
 x8 | x8 | x8 | x8 | [=Dc][DB][DB][DF] z [_DG][DF][DE] | x8 | [FA][DF][FA][FB] z G,Cc | %7
[M:5/4] cFd c2 [B,D]2 [_CF]3 |[M:9/8] x9 |[M:4/4] x8 | [DF][DB]=Ac z2 B,2 | x8 | x8 | x8 | %14
 [DF][FA][FB][F_c] z[K:bass] =E,G,[K:treble][=E=c] | %15
[M:39/32] z/4 z/4 z/4 z/4 z/4 z/4 z/ d/4-d/4-d/4-d/4-d/4-d/4-d/-<d/[DB]/4-[DB]/4-[DB]/-<[DB]/ z/4 z/4 z/4 z/4 z/4 z/4 z/4 z/4 z/4 z/4 z/4 z/4 z/4 z/ | %16
[M:7/8] z z2 B-B/4 z/4 z/ z2 |] %17
V:6
 x8 | x8 | x8 | x8 | x8 | x8 | x8 |[M:5/4] x10 |[M:9/8] x9 |[M:4/4] x8 | x8 | x8 | x8 | x8 | %14
 x5[K:bass] x2[K:treble] x | %15
[M:39/32] c/-<c/F/-<F/ z/4 z/4 z/4 z/4 z/4 z/4 z/4 z/4 z/4 z/4 z/4 z/4 z/ F/-<F/[FA]/4-[FA]/4-[FA]/4-[FA]/4-[FA]/-<[FA]/ z/4 z/4 z/4 z/ | %16
[M:7/8] c z z2 [CA]3 |] %17
V:7
 x8 | x8 | x8 | x8 | x8 | x8 | x8 |[M:5/4] x6[K:treble] x4 |[M:9/8][K:bass] x9 |[M:4/4] x8 | x8 | %11
 x8 | x8 | x8 | x8 | %15
[M:39/32] z/4 z/4 z/4 z/4 z/4 z/4 z/4 z/4 z/4 z/4 z/4 z/4 z/4 z/4 z/4 z/4 z/ B,,/4-B,,/4-B,,/-<B,,/ z/4 z/4 z/4 z/4 z/4 z/4 z/4 z/4 z/4 z/4 z/4 z/4 z/4 z/ | %16
[M:7/8] [E,A,E] E,2 z [A,,A,]3 |] %17

